X:1
T:Title
%%score { ( 1 4 ) | ( 2 3 ) }
L:1/8
Q:1/4=100
M:6/4
K:Eb
V:1 treble nm="Grand Piano"
V:4 treble 
V:2 bass 
V:3 bass 
V:1
 G4 G2 G3 F [G,E]2 | [B,DF]4 [B,EG]2 [B,DF]6 | [CDA]4 [CDA]2 .[B,DA]4 [B,DF]2 | G12 | %4
w: Lillian~Taitt~Sheldon * * * *||||
 B4 B2 B3 =A G2 | F4 D2 F6 | F4 F2 F2 G2 F2 | [DB]12 | G4 G2 A3 G F2 | B4 =B2 c6 | %10
w: ||||||
 [CEe]2 [Fd]2 [E_Gc]2 [E=GB]2 [CE]2 [CEA]2[Q:1/4=98][Q:1/4=97][Q:1/4=95][Q:1/4=94][Q:1/4=92][Q:1/4=91][Q:1/4=89][Q:1/4=88][Q:1/4=86][Q:1/4=84][Q:1/4=83][Q:1/4=81][Q:1/4=80][Q:1/4=78][Q:1/4=77] | %11
w: |
 [B,EG]4 [A,DF]2 [G,E]6 |] %12
w: |
V:2
 z6 .B,6 | B,,4 B,,2 B,,6 | B,,4 B,,2 z2 G2 B,,2 | [E,B,E]12 | %4
 [E,G,E]4 [E,G,E]2 [=E,_D]3- [E,=A,D] [E,B,D]2 | [F,B,D]4 [F,B,]2 [F,B,D]6 | %6
 [F,=A,E]4 [F,A,E]2 [F,A,E]4 [F,A,E]2 | F,6 z6 | [E,B,E]4 [E,B,E]2 [F,B,D]4 [A,B,D]2 | %9
 [G,B,E]4 [G,_DE]2 [A,CE]6 | z2 D2 =A,,2 B,,2 C,2 F,2 | B,,4 B,,2 E,6 |] %12
V:3
 [E,B,E]4 [E,B,E]2 [E,E]3- [E,A,E] E,2 | x12 | z6 .B,,6 | x12 | z6 .G,6 | x12 | x12 | B,,12 | x12 | %9
 x12 | .A,,6 z6 | x12 |] %12
V:4
 x12 | x12 | x12 | x12 | x12 | x12 | x12 | z6 B,6 | x12 | x12 | x12 | x12 |] %12

